!!!COM: Robert Franz
!!!CNT: Deutscher
!!!TXO: Deutsche 
!!!OTL: "Habt ihr sie schon geseh'n?"
!!!OPS: Op. 36
!!!ONM: No. 3
!!!ONB: Original key: Bb major
!!!LYR: Folk-song
!!!ENC: Brian Bice
!!!YOR: Vocal Album, G. Schirmer, Inc., 1907
!!!ODT: 1862/
!!NB: Vocal melody and text only encoded.
**kern	**silbe
*clefG2	*
*k[f#]	*
*M3/8	*
=2	=2
{(16b	{Habt
16a)	|
8b	ihr
8a	sie
=3	=3
8g	schon
(f#q	ge-
8e)	|
8d	-she'n,
=4	=4
(16e	sie
16f#)	|
8g	mei-
8a	-nen
=5	=5
4b}	Schatz.}
8r	.
=6	=6
{(16dd	{u2-
16cc#)	|
8dd	-ber
8cc#	die
=7	=7
8b	Gas-
(aq	-sen
8g)	|
8f	geh'n,
=8	=8
(16g	u2-
16a)	|
8b	-ber
8cc#	den
=9	=9
4dd}	Platz?}
8r	.
=10	=10
{8.g#	{Sitt-
16a	-sam-
8b	-lich
=11	=11
8.ccn	geht
16e	sie
8a	fort,
=12	=12
(16b	je-
16fn)	|
(16b	-der-
16dd)	|
(16cc	-mann
16b)	|
=13	=13
4cc}	gru2sst,}
8r	.
=14	=14
{8.f#	{schaut
16g	sich
8a	um,
=15	=15
8.b	red't
16d	ein
8g	Wort
=16	=16
(16g	wer
16b-)	|
8a	von
8g	ihr
=17	=17
[4.d	wu2sst'?!
=18	=18
8d]}	|}
8r	.
8r	.
=19	=19
{(16b	{A-
16a)	|
8b	-ber
8a	der
=20	=20
8g	Al-
(f#q	-les
8e)	|
8d	weiss,
=21	=21
(16e	sagt
16f#)	|
8g	es
8a	Euch
=22	=22
4b}	nicht,}
8r	.
=23	=23
{(16dd	{steigt
16cc#)	|
8dd	ihm
8cc#	auch
=24	=24
8b	glu2-
(aq	-hend
8g)	|
8f#	heiss
=25	=25
(16g	Blut
16a)	|
8b	ins'
8cc#	Ge-
=26	=26
4dd}	-sicht}
8r	.
=27	=27
{8.g#	{a-
16a	-ber
8b	in
=28	=28
8.ccn	Her-
16e	-zen
8a	d'rin,
=29	=29
(16b	weiss
16fn)	|
(16b	ich
16dd)	|
(16cc	es
16b)	|
=30	=30
4cc}	gut,}
8r	.
=31	=31
{8.f#	{dass
16g	ich
8a	im
=32	=32
8.b	Sinn
16d	ihr
8g	bin,
=33	=33
(16g	was
16b-)	|
8a	sie
8g	nur
=34	=34
[4.dd	thut.
=35	=35
8dd]}	|}
8r	.
8r	.
=36	=36
{(16b	{Kommt
16a)	|
8b	dann
8a	die
=37	=37
8g	Nacht
(f#q	her-
8e)	|
8d	-ein,
=38	=38
(16e	dun-
16f#)	|
8g	-kel
8a	und
=39	=39
4b}	still,}
8r	.
=40	=40
{(16dd	{wie
16cc#)	|
8dd	ich
8cc#	im
=41	=41
8b	Gar-
(aq	-ten
8g)	|
8f#	dein
=42	=42
(16g	ku2s-
16ee)	|
8dd	-sen
8cc#	dich
=43	=43
4b}	will}
8r	.
=44	=44
{8.g#	{die
16b	du
8cc	micht
=45	=45
8.ccn	um
16e	dich
8a	blickst,
=46	=46
(16b	kaum
16fn)	|
(16b	dass
16dd)	|
(16cc	du
16b)	|
=47	=47
4cc}	gru2sst,}
8r	.
=48	=48
{8.f#	{fest
16g	mich
8a	dann
=49	=49
8.b	an
16d	dich
8g	dru2ckst,
=50	=50
8b-	tau-
8a	-send-
8g	mal
=51	=51
4.dd}	ku2ss't,}
=52	=52
{(16f#	{tau-
16cc)	|
8b	-send-
8a	-mal
=53	=53
4g}	ku2ss't.}
8r	.
*-	*-
